X: 1138
T: Cattle In The Cane
C:Owen "Snake" Chapman
B: steve's tunes
M:4/4
L:1/8
R: reel
Q: 1/4=125
K:D
V:1 
AB|: "A" ceef edcd | ecef ged=c | "G" BGB=c dedB |
GBeB dBAG | "A"ceee efed | cAcd eafa |
"G"(3f=gf ec (3B=cB AF |[1 "E"(3EFG AB "A"A2 AB :| [2 "E"(3EFG AB "A"A2 E2 :|
"Am" A2 A2 A,2 A,B, | CEDC A,G, (3A,CA, | "C" G,CA,B, CDEG | ABcd edcB |
"Am" ce (3BcB ABAG | EGED CEDC | "C"ECEG EDCE | "E"DCB,C "Am" A,2 GA ||
"Am" A A,3 A,2 A,B, | CEDC A,G, (3A,CA, | "C" G,CA,B, CDEG | ABcd edcB |
"Am" cdea gbag | ege^d =dcAG | "C" EGcG BcAG | "E" EDCB, [A2E2A,2] [A2E2A,2] |]
|:GE | "G"DB,DF G2Ac | BGAG EFGE | DB,DG EFGA | "D"B2[d2D][d2D]Bd |
"G"edef g2 ed | "C"BGAG EFGE | "G"DB,DG EFGB | [1 "D"A2"G"[G4B,]:| [2 "D"A2"G"[G4B,] Bd||
|: "C"edef g2 ed | "G"BGAG EFGd | "C"edef g2 ed | "G"[B2D][d4D] dd |
"C"e2 ge "G"d2 ed | BGAG "C"E2 GE | "D7"DB,DG EFGB | [1 "G"A2 [G4B,] Bd:| "G"A2 [G4B,]||
% abcbook-tune_id 6298c245f144b725e829f450


% abcbook-boost 0
% abcbook-tablature 
% abcbook-transpose 
% abcbook-lastupdated 1655985614513
% abcbook-soundfonts 
% abcbook-repeats 3


